app/dist/common/images/theravance-biopharma.svg

<svg height="18" width="18" xmlns="http://www.w3.org/2000/svg"><path d="m0 0h18v18h-18z" fill="#f0f3fa"/><path d="m4 4.267.254-.267 2.896 2.867c.934-1.002 1.414-2.242 1.538-2.737v4.558h-4.626c1.328-.35 2.425-1.168 2.807-1.533z" fill="#88bae5"/><path d="m14 4.267-.254-.267-2.896 2.867c-.934-1.002-1.414-2.242-1.538-2.737v4.558h4.626c-1.329-.35-2.425-1.168-2.807-1.533z" fill="#0076bd"/><path d="m14 13.733-.254.267-2.896-2.867c-.934 1.002-1.414 2.242-1.538 2.737v-4.558h4.626c-1.329.35-2.425 1.168-2.807 1.533z" fill="#88bae5"/><path d="m4 13.733.254.267 2.896-2.867c.934 1.002 1.414 2.242 1.538 2.737v-4.558h-4.626c1.328.35 2.425 1.168 2.807 1.533z" fill="#0076bd"/></svg>

<!-- by TradingView --><svg width="18" height="18" xmlns="http://www.w3.org/2000/svg"><path fill="#F0F3FA" d="M0 0h18v18H0z"/><path d="M4 4.267L4.254 4 7.15 6.867c.934-1.002 1.414-2.242 1.538-2.737v4.558H4.062c1.328-.35 2.425-1.168 2.807-1.533L4 4.267z" fill="#88BAE5"/><path d="M14 4.267L13.746 4 10.85 6.867C9.916 5.865 9.436 4.625 9.312 4.13v4.558h4.626c-1.329-.35-2.425-1.168-2.807-1.533L14 4.267z" fill="#0076BD"/><path d="M14 13.733l-.254.267-2.896-2.867c-.934 1.002-1.414 2.242-1.538 2.737V9.312h4.626c-1.329.35-2.425 1.168-2.807 1.533L14 13.733z" fill="#88BAE5"/><path d="M4 13.733l.254.267 2.896-2.867c.934 1.002 1.414 2.242 1.538 2.737V9.312H4.062c1.328.35 2.425 1.168 2.807 1.533L4 13.733z" fill="#0076BD"/></svg>
